X: 130
T:Reel of the Royal Scots
M:2/4
L:1/8
C:Trad arr Trish Barker
R:Reel
K:D
f|"D"Ad d/2e/2f/2g/2|af/2d/2 "A"ec/2A/2|"D"dd/2e/2 fd|
"Em"B/2ed/2 "A7"ef|"D"Ad d/2e/2f/2g/2|!
"D"af/2d/2 "A"ec/2A/2|"D"dd/2e/2 fd|"A7"e/2g/2f/2e/2 "D"d:|
|:f/2g/2|"D"af/2d/2 fA|"D"d/2e/2f/2d/2 "A7"cA|!
"D"df "Bm"d/2e/2f/2d/2|"Em"B/2ed/2 "A7"ef/2g/2|"D"af/2d/2 fA|
"D"d/2e/2f/2d/2 "A7"cA|"D"dd/2e/2 "Bm"fd|"A7"e/2g/2f/2e/2 "D"d:||
% <A name="D1X131">
